; generated by PrusaSlicer 2.2.0-alpha2+linux-x64 on 2019-12-27 at 02:59:33 UTC

; 

; external perimeters extrusion width = 0.45mm
; perimeters extrusion width = 0.45mm
; infill extrusion width = 0.45mm
; solid infill extrusion width = 0.45mm
; top infill extrusion width = 0.40mm
; first layer extrusion width = 0.42mm

M73 P0 R54
M73 Q0 S55
M201 X1000 Y1000 Z1000 E5000 ; sets maximum accelerations, mm/sec^2
M203 X200 Y200 Z12 E120 ; sets maximum feedrates, mm/sec
M204 P1250 R1250 T1250 ; sets acceleration (P, T) and retract acceleration (R), mm/sec^2
M205 X8.00 Y8.00 Z0.40 E1.50 ; sets the jerk limits, mm/sec
M205 S0 T0 ; sets the minimum extruding and travel feed rate, mm/sec
M107
M862.3 P "MK3S" ; printer model check
M862.1 P0.4 ; nozzle diameter check
M115 U3.8.1 ; tell printer latest fw version
G90 ; use absolute coordinates
M83 ; extruder relative mode
M104 S215 ; set extruder temp
M140 S60 ; set bed temp
M190 S60 ; wait for bed temp
M109 S215 ; wait for extruder temp
G28 W ; home all without mesh bed level
G80 ; mesh bed leveling
G1 Y-3.0 F1000.0 ; go outside print area
G92 E0.0
G1 X60.0 E9.0 F1000.0 ; intro line
M73 Q0 S55
M73 P0 R54
G1 X100.0 E12.5 F1000.0 ; intro line
G92 E0.0
M221 S95
G21 ; set units to millimeters
G90 ; use absolute coordinates
M83 ; use relative distances for extrusion
M900 K30 ; Filament gcode
;BEFORE_LAYER_CHANGE
G92 E0.0
;0.2


G1 E-0.80000 F2100.00000
G1 Z0.600 F10800.000
;AFTER_LAYER_CHANGE
;0.2
G1 X66.744 Y80.159
G1 Z0.200
G1 E0.80000 F2100.00000
M204 S1000
G1 F1200.000
G1 X106.186 Y53.081 E1.50005
G1 X109.586 Y50.966 E0.12556
G1 X113.416 Y48.931 E0.13597
G1 X117.369 Y47.171 E0.13569
G1 X121.271 Y45.744 E0.13025
G1 X125.628 Y44.484 E0.14222
G1 X129.870 Y43.579 E0.13597
G1 X134.198 Y42.968 E0.13706
G1 X138.298 Y42.674 E0.12889
G1 X175.759 Y42.623 E1.17456
G1 X176.930 Y42.679 E0.03678
G1 X178.083 Y42.845 E0.03650
G1 X179.214 Y43.118 E0.03650
G1 X180.316 Y43.496 E0.03650
G1 X181.376 Y43.976 E0.03650
G1 X182.387 Y44.553 E0.03650
G1 X183.346 Y45.228 E0.03678
G1 X184.231 Y45.985 E0.03650
G1 X185.046 Y46.829 E0.03678
G1 X185.773 Y47.738 E0.03650
G1 X186.415 Y48.720 E0.03678
G1 X186.958 Y49.749 E0.03650
G1 X187.402 Y50.826 E0.03650
G1 X187.743 Y51.939 E0.03650
G1 X187.979 Y53.088 E0.03678
G1 X188.104 Y54.246 E0.03650
G1 X188.115 Y155.539 E3.17598
G1 X187.984 Y156.879 E0.04222
G1 X187.705 Y158.205 E0.04249
G1 X187.283 Y159.493 E0.04249
G1 X186.723 Y160.727 E0.04249
G1 X186.031 Y161.892 E0.04249
G1 X185.216 Y162.975 E0.04249
G1 X184.287 Y163.962 E0.04249
G1 X183.256 Y164.841 E0.04249
G1 X181.721 Y165.842 E0.05745
G1 X180.055 Y166.604 E0.05745
G1 X178.295 Y167.113 E0.05745
G1 X176.487 Y167.355 E0.05718
G1 X140.654 Y167.377 E1.12351
G1 X138.363 Y167.330 E0.07186
G1 X134.452 Y167.057 E0.12291
G1 X130.130 Y166.465 E0.13679
G1 X125.691 Y165.532 E0.14223
G1 X121.588 Y164.360 E0.13379
G1 X117.397 Y162.841 E0.13977
G1 X113.435 Y161.078 E0.13598
G1 X109.582 Y159.032 E0.13678
G1 X106.085 Y156.855 E0.12916
G1 X67.125 Y130.120 E1.48151
G1 X65.665 Y128.916 E0.05935
G1 X64.406 Y127.502 E0.05935
G1 X63.419 Y125.989 E0.05663
G1 X62.662 Y124.349 E0.05663
G1 X62.151 Y122.608 E0.05691
G1 X61.900 Y120.819 E0.05663
G1 X61.888 Y89.392 E0.98538
G1 X62.027 Y88.053 E0.04222
G1 X62.311 Y86.736 E0.04222
G1 X62.736 Y85.459 E0.04222
G1 X63.294 Y84.242 E0.04195
G1 X63.984 Y83.086 E0.04222
G1 X64.796 Y82.012 E0.04222
G1 X65.719 Y81.032 E0.04222
G1 X66.698 Y80.198 E0.04034
G1 F8640.000
G1 X69.412 Y78.334 E-0.76000
G1 E-0.04000 F2100.00000
G1 Z0.800 F10800.000
G1 X86.581 Y129.400
G1 Z0.200
G1 E0.80000 F2100.00000
G1 F1200.000
G1 X72.601 Y129.269 E0.43835
G1 X70.092 Y128.409 E0.08315
G1 X67.926 Y126.889 E0.08299
G1 X66.228 Y124.844 E0.08334
G1 X65.152 Y122.401 E0.08370
G1 X64.834 Y120.416 E0.06302
G1 X64.834 Y89.257 E0.97697
G1 X66.153 Y85.246 E0.13237
G1 X67.087 Y83.989 E0.04912
G1 X68.163 Y82.887 E0.04828
G1 X70.692 Y81.313 E0.09339
G1 X73.595 Y80.590 E0.09380
G1 X86.599 Y80.584 E0.40773
G1 X88.224 Y77.230 E0.11687
G1 X90.347 Y73.540 E0.13347
G1 X92.699 Y70.053 E0.13188
G1 X95.229 Y66.816 E0.12880
G1 X97.992 Y63.746 E0.12951
G1 X101.001 Y60.839 E0.13120
G1 X104.189 Y58.166 E0.13044
G1 X107.524 Y55.743 E0.12924
G1 X111.032 Y53.551 E0.12970
G1 X114.708 Y51.596 E0.13054
G1 X118.623 Y49.859 E0.13432
G1 X122.538 Y48.445 E0.13051
G1 X126.541 Y47.309 E0.13046
G1 X130.590 Y46.460 E0.12972
G1 X134.343 Y45.932 E0.11882
G1 X136.061 Y45.785 E0.05407
G1 X137.507 Y45.495 E0.04625
G1 X138.643 Y45.422 E0.03567
G1 X139.825 Y45.416 E0.03707
G1 X140.220 Y45.384 E0.01241
G1 X142.972 Y45.385 E0.08630
G1 X144.290 Y45.487 E0.04146
G1 X144.960 Y45.584 E0.02120
G1 X176.309 Y45.584 E0.98293
G1 X179.642 Y46.453 E0.10798
G1 X181.571 Y47.669 E0.07152
G1 X183.164 Y49.291 E0.07129
G1 X184.332 Y51.201 E0.07017
G1 X185.020 Y53.340 E0.07046
G1 X185.168 Y65.533 E0.38235
G1 X184.272 Y68.943 E0.11053
G1 X182.932 Y71.003 E0.07704
G1 X181.143 Y72.651 E0.07628
G1 X179.045 Y73.794 E0.07490
G1 X176.693 Y74.375 E0.07596
G1 X141.402 Y74.415 E1.10654
G1 X141.058 Y74.440 E0.01081
G1 X139.683 Y74.440 E0.04311
G1 X137.554 Y74.589 E0.06692
G1 X135.440 Y74.886 E0.06692
G1 X133.352 Y75.330 E0.06693
G1 X131.301 Y75.918 E0.06692
G1 X129.295 Y76.648 E0.06692
G1 X127.345 Y77.516 E0.06692
G1 X125.461 Y78.518 E0.06692
G1 X123.651 Y79.649 E0.06692
G1 X121.924 Y80.904 E0.06692
G1 X120.289 Y82.276 E0.06692
G1 X118.754 Y83.758 E0.06692
G1 X117.325 Y85.344 E0.06692
G1 X116.011 Y87.026 E0.06692
G1 X114.818 Y88.796 E0.06692
G1 X113.751 Y90.644 E0.06692
G1 X112.815 Y92.562 E0.06692
G1 X112.015 Y94.542 E0.06693
G1 X111.356 Y96.571 E0.06692
G1 X110.839 Y98.642 E0.06692
G1 X110.469 Y100.744 E0.06693
G1 X110.246 Y102.867 E0.06692
G1 X110.171 Y105.000 E0.06692
G1 X110.246 Y107.133 E0.06692
G1 X110.469 Y109.256 E0.06692
G1 X110.839 Y111.358 E0.06693
G1 X111.356 Y113.429 E0.06692
G1 X112.015 Y115.458 E0.06692
G1 X112.815 Y117.438 E0.06693
G1 X113.751 Y119.356 E0.06692
G1 X114.818 Y121.204 E0.06692
G1 X116.011 Y122.974 E0.06692
G1 X117.325 Y124.656 E0.06692
G1 X118.753 Y126.242 E0.06692
G1 X120.289 Y127.724 E0.06692
G1 X121.924 Y129.096 E0.06692
G1 X123.651 Y130.351 E0.06692
G1 X125.461 Y131.482 E0.06692
G1 X127.345 Y132.484 E0.06692
G1 X129.295 Y133.352 E0.06692
G1 X131.301 Y134.082 E0.06692
G1 X133.352 Y134.670 E0.06692
G1 X135.440 Y135.114 E0.06693
G1 X137.554 Y135.411 E0.06692
G1 X139.683 Y135.560 E0.06692
G1 X141.058 Y135.560 E0.04311
G1 X141.401 Y135.584 E0.01079
G1 X176.218 Y135.584 E1.09166
G1 X178.760 Y136.098 E0.08130
G1 X180.982 Y137.236 E0.07830
G1 X183.664 Y139.955 E0.11973
G1 X184.521 Y141.651 E0.05960
G1 X185.050 Y143.509 E0.06057
G1 X185.167 Y155.587 E0.37872
G1 X184.486 Y158.442 E0.09203
G1 X182.980 Y160.935 E0.09132
G1 X180.777 Y162.906 E0.09267
G1 X178.097 Y164.114 E0.09217
G1 X176.162 Y164.416 E0.06141
G1 X144.960 Y164.416 E0.97833
G1 X144.283 Y164.514 E0.02144
G1 X142.949 Y164.616 E0.04193
G1 X140.215 Y164.616 E0.08573
G1 X139.810 Y164.583 E0.01274
G1 X138.488 Y164.571 E0.04145
G1 X137.108 Y164.448 E0.04345
G1 X136.013 Y164.211 E0.03511
G1 X134.332 Y164.067 E0.05290
G1 X130.315 Y163.492 E0.12725
G1 X126.260 Y162.621 E0.13002
G1 X122.281 Y161.472 E0.12989
G1 X118.517 Y160.099 E0.12563
G1 X114.803 Y158.450 E0.12740
G1 X110.934 Y156.392 E0.13740
G1 X107.431 Y154.194 E0.12968
G1 X104.115 Y151.777 E0.12866
G1 X100.964 Y149.128 E0.12906
G1 X98.002 Y146.264 E0.12918
G1 X95.241 Y143.199 E0.12934
G1 X92.607 Y139.820 E0.13432
G1 X90.347 Y136.459 E0.12700
G1 X88.334 Y132.978 E0.12606
G1 X86.607 Y129.454 E0.12307
G1 X86.817 Y129.025 F10800.000
G1 F1200.000
G1 X72.693 Y128.902 E0.44286
G1 X70.286 Y128.085 E0.07972
G1 X68.199 Y126.628 E0.07981
G1 X66.562 Y124.667 E0.08010
G1 X65.520 Y122.316 E0.08060
G1 X65.212 Y120.401 E0.06083
G1 X65.212 Y89.287 E0.97554
G1 X66.501 Y85.395 E0.12857
G1 X67.381 Y84.226 E0.04587
G1 X68.417 Y83.167 E0.04644
G1 X70.865 Y81.649 E0.09033
G1 X73.662 Y80.962 E0.09032
G1 X86.835 Y80.962 E0.41303
G1 X88.554 Y77.412 E0.12366
G1 X90.671 Y73.734 E0.13305
G1 X93.008 Y70.269 E0.13104
G1 X95.522 Y67.054 E0.12798
G1 X98.258 Y64.013 E0.12827
G1 X101.259 Y61.114 E0.13079
G1 X104.416 Y58.467 E0.12920
G1 X107.729 Y56.060 E0.12841
G1 X111.226 Y53.874 E0.12928
G1 X114.879 Y51.932 E0.12971
G1 X118.758 Y50.211 E0.13306
G1 X122.648 Y48.806 E0.12968
G1 X126.625 Y47.676 E0.12963
G1 X130.649 Y46.832 E0.12892
G1 X134.390 Y46.306 E0.11846
M73 Q1 S54
G1 X136.115 Y46.159 E0.05427
G1 X137.544 Y45.870 E0.04573
G1 X138.661 Y45.798 E0.03509
G1 X139.841 Y45.793 E0.03700
G1 X140.227 Y45.761 E0.01214
G1 X142.965 Y45.762 E0.08583
M73 P1 R53
G1 X144.255 Y45.862 E0.04058
G1 X144.932 Y45.961 E0.02146
G1 X176.285 Y45.962 E0.98304
G1 X179.466 Y46.788 E0.10305
G1 X181.318 Y47.950 E0.06856
G1 X182.854 Y49.508 E0.06860
G1 X183.980 Y51.338 E0.06737
G1 X184.652 Y53.428 E0.06885
G1 X184.790 Y65.512 E0.37892
G1 X183.939 Y68.764 E0.10537
G1 X182.658 Y70.742 E0.07390
G1 X180.942 Y72.331 E0.07335
G1 X178.886 Y73.451 E0.07338
G1 X176.626 Y74.003 E0.07297
G1 X141.388 Y74.038 E1.10486
G1 X141.051 Y74.063 E0.01059
G1 X139.670 Y74.063 E0.04331
G1 X137.514 Y74.214 E0.06774
G1 X135.375 Y74.514 E0.06774
G1 X133.261 Y74.964 E0.06775
G1 X131.184 Y75.559 E0.06775
G1 X129.154 Y76.298 E0.06774
G1 X127.180 Y77.177 E0.06774
G1 X125.272 Y78.191 E0.06775
G1 X123.440 Y79.336 E0.06775
G1 X121.692 Y80.606 E0.06775
G1 X120.036 Y81.995 E0.06775
G1 X118.482 Y83.496 E0.06775
G1 X117.036 Y85.102 E0.06775
G1 X115.706 Y86.805 E0.06775
G1 X114.498 Y88.596 E0.06775
G1 X113.417 Y90.467 E0.06775
G1 X112.470 Y92.409 E0.06775
G1 X111.661 Y94.412 E0.06775
G1 X110.993 Y96.467 E0.06775
G1 X110.470 Y98.564 E0.06774
G1 X110.095 Y100.692 E0.06775
G1 X109.869 Y102.841 E0.06775
G1 X109.794 Y105.000 E0.06775
G1 X109.869 Y107.159 E0.06775
G1 X110.095 Y109.308 E0.06775
G1 X110.470 Y111.436 E0.06775
G1 X110.993 Y113.533 E0.06774
G1 X111.661 Y115.588 E0.06775
G1 X112.470 Y117.591 E0.06775
G1 X113.417 Y119.533 E0.06775
G1 X114.498 Y121.404 E0.06774
G1 X115.706 Y123.195 E0.06775
G1 X117.036 Y124.898 E0.06775
G1 X118.482 Y126.504 E0.06775
G1 X120.036 Y128.005 E0.06775
G1 X121.692 Y129.394 E0.06775
G1 X123.440 Y130.664 E0.06775
G1 X125.272 Y131.809 E0.06775
G1 X127.180 Y132.823 E0.06775
G1 X129.154 Y133.702 E0.06774
G1 X131.184 Y134.441 E0.06774
G1 X133.261 Y135.036 E0.06775
G1 X135.375 Y135.486 E0.06775
G1 X137.514 Y135.786 E0.06774
G1 X139.670 Y135.937 E0.06774
G1 X141.051 Y135.937 E0.04331
G1 X141.387 Y135.962 E0.01058
G1 X176.200 Y135.962 E1.09151
G1 X178.612 Y136.446 E0.07717
G1 X180.736 Y137.524 E0.07467
G1 X183.341 Y140.151 E0.11601
G1 X184.177 Y141.805 E0.05809
G1 X184.681 Y143.587 E0.05808
G1 X184.790 Y155.567 E0.37564
G1 X184.126 Y158.325 E0.08894
G1 X182.673 Y160.715 E0.08770
G1 X180.549 Y162.605 E0.08914
G1 X177.967 Y163.759 E0.08868
G1 X176.148 Y164.038 E0.05770
G1 X144.932 Y164.039 E0.97874
G1 X144.248 Y164.138 E0.02169
G1 X142.942 Y164.238 E0.04105
G1 X140.223 Y164.238 E0.08525
G1 X139.827 Y164.206 E0.01245
G1 X138.514 Y164.195 E0.04118
G1 X137.154 Y164.073 E0.04283
G1 X136.070 Y163.837 E0.03477
G1 X134.381 Y163.693 E0.05316
G1 X130.375 Y163.119 E0.12688
G1 X126.346 Y162.254 E0.12920
G1 X122.391 Y161.111 E0.12907
G1 X118.652 Y159.747 E0.12482
G1 X114.974 Y158.114 E0.12617
G1 X111.128 Y156.069 E0.13655
G1 X107.648 Y153.885 E0.12885
G1 X104.352 Y151.484 E0.12784
G1 X101.221 Y148.852 E0.12825
G1 X98.277 Y146.007 E0.12836
G1 X95.526 Y142.951 E0.12893
G1 X92.909 Y139.594 E0.13349
G1 X90.670 Y136.265 E0.12578
G1 X88.664 Y132.795 E0.12566
G1 X86.844 Y129.078 E0.12977
G1 X87.079 Y128.649 F10800.000
G1 F1200.000
G1 X72.785 Y128.535 E0.44821
G1 X70.478 Y127.760 E0.07629
G1 X68.471 Y126.366 E0.07663
G1 X66.895 Y124.489 E0.07685
G1 X65.889 Y122.231 E0.07749
G1 X65.589 Y120.385 E0.05864
G1 X65.589 Y89.318 E0.97411
G1 X66.821 Y85.597 E0.12288
G1 X67.675 Y84.463 E0.04452
G1 X68.670 Y83.447 E0.04458
G1 X70.985 Y82.008 E0.08546
G1 X73.686 Y81.339 E0.08724
G1 X87.072 Y81.339 E0.41971
G1 X88.884 Y77.594 E0.13044
G1 X90.994 Y73.928 E0.13263
G1 X93.317 Y70.486 E0.13020
G1 X95.815 Y67.291 E0.12715
G1 X98.525 Y64.279 E0.12704
G1 X101.516 Y61.390 E0.13037
G1 X104.643 Y58.768 E0.12796
G1 X107.935 Y56.376 E0.12759
G1 X111.420 Y54.198 E0.12887
G1 X115.050 Y52.268 E0.12888
G1 X118.892 Y50.563 E0.13180
G1 X122.757 Y49.167 E0.12885
G1 X126.709 Y48.044 E0.12881
G1 X130.708 Y47.205 E0.12812
G1 X134.438 Y46.680 E0.11810
G1 X136.169 Y46.533 E0.05447
G1 X137.581 Y46.246 E0.04520
G1 X138.680 Y46.175 E0.03451
G1 X139.858 Y46.170 E0.03694
G1 X140.235 Y46.139 E0.01186
G1 X142.957 Y46.140 E0.08535
G1 X144.219 Y46.238 E0.03969
G1 X144.905 Y46.338 E0.02173
G1 X176.261 Y46.339 E0.98315
G1 X179.290 Y47.123 E0.09810
G1 X181.099 Y48.257 E0.06695
G1 X182.570 Y49.756 E0.06585
G1 X183.646 Y51.515 E0.06465
G1 X184.285 Y53.516 E0.06585
G1 X184.413 Y65.491 E0.37551
G1 X183.606 Y68.585 E0.10025
G1 X182.385 Y70.482 E0.07073
G1 X180.703 Y72.038 E0.07184
G1 X178.729 Y73.107 E0.07040
G1 X176.559 Y73.631 E0.06998
G1 X141.373 Y73.661 E1.10322
G1 X141.044 Y73.686 E0.01037
G1 X139.656 Y73.686 E0.04349
G1 X137.475 Y73.838 E0.06857
G1 X135.309 Y74.143 E0.06857
G1 X133.170 Y74.597 E0.06858
G1 X131.067 Y75.200 E0.06857
G1 X129.012 Y75.948 E0.06857
G1 X127.014 Y76.838 E0.06857
G1 X125.083 Y77.865 E0.06858
G1 X123.229 Y79.023 E0.06857
G1 X121.459 Y80.309 E0.06857
G1 X119.784 Y81.715 E0.06857
G1 X118.211 Y83.234 E0.06857
G1 X116.747 Y84.859 E0.06857
G1 X115.401 Y86.583 E0.06857
G1 X114.178 Y88.396 E0.06857
G1 X113.084 Y90.290 E0.06857
G1 X112.126 Y92.256 E0.06857
G1 X111.306 Y94.283 E0.06858
G1 X110.630 Y96.363 E0.06857
G1 X110.101 Y98.485 E0.06857
G1 X109.722 Y100.639 E0.06858
G1 X109.493 Y102.814 E0.06857
G1 X109.417 Y105.000 E0.06857
G1 X109.493 Y107.186 E0.06857
G1 X109.722 Y109.361 E0.06857
G1 X110.101 Y111.515 E0.06858
G1 X110.630 Y113.637 E0.06857
G1 X111.306 Y115.717 E0.06857
G1 X112.126 Y117.744 E0.06858
G1 X113.084 Y119.710 E0.06857
G1 X114.178 Y121.604 E0.06857
G1 X115.401 Y123.417 E0.06857
G1 X116.747 Y125.141 E0.06857
G1 X118.211 Y126.766 E0.06857
G1 X119.784 Y128.285 E0.06857
G1 X121.459 Y129.691 E0.06857
G1 X123.229 Y130.977 E0.06857
G1 X125.083 Y132.135 E0.06857
G1 X127.014 Y133.162 E0.06858
G1 X129.012 Y134.052 E0.06857
G1 X131.067 Y134.800 E0.06857
G1 X133.170 Y135.403 E0.06857
G1 X135.309 Y135.857 E0.06858
G1 X137.475 Y136.162 E0.06857
G1 X139.656 Y136.314 E0.06857
G1 X141.044 Y136.314 E0.04350
G1 X141.373 Y136.339 E0.01036
G1 X176.181 Y136.339 E1.09138
G1 X178.466 Y136.795 E0.07307
G1 X180.491 Y137.812 E0.07105
G1 X183.019 Y140.349 E0.11228
G1 X183.819 Y141.925 E0.05544
G1 X184.311 Y143.666 E0.05670
G1 X184.413 Y155.547 E0.37254
G1 X183.767 Y158.207 E0.08583
G1 X182.366 Y160.494 E0.08409
G1 X180.367 Y162.273 E0.08389
G1 X177.884 Y163.391 E0.08540
G1 X176.133 Y163.661 E0.05553
G1 X144.905 Y163.662 E0.97915
G1 X144.212 Y163.763 E0.02195
G1 X142.935 Y163.861 E0.04017
G1 X140.231 Y163.861 E0.08477
G1 X139.845 Y163.829 E0.01216
G1 X138.540 Y163.819 E0.04090
G1 X137.199 Y163.699 E0.04221
G1 X136.127 Y163.464 E0.03443
G1 X134.429 Y163.319 E0.05343
G1 X130.435 Y162.747 E0.12650
G1 X126.432 Y161.887 E0.12838
G1 X122.502 Y160.751 E0.12825
G1 X118.787 Y159.394 E0.12401
G1 X115.145 Y157.778 E0.12494
G1 X111.323 Y155.746 E0.13571
G1 X107.864 Y153.576 E0.12802
G1 X104.590 Y151.191 E0.12702
G1 X101.479 Y148.576 E0.12743
G1 X98.553 Y145.750 E0.12753
G1 X95.811 Y142.704 E0.12851
G1 X93.210 Y139.367 E0.13265
G1 X90.986 Y136.060 E0.12496
G1 X88.994 Y132.612 E0.12485
G1 X87.228 Y129.012 E0.12573
G1 X87.102 Y128.705 E0.01040
G1 X87.333 Y128.274 F10800.000
G1 F1200.000
G1 X72.875 Y128.168 E0.45333
G1 X70.670 Y127.434 E0.07287
G1 X68.742 Y126.103 E0.07345
G1 X67.228 Y124.310 E0.07360
G1 X66.257 Y122.146 E0.07437
G1 X65.966 Y120.370 E0.05642
G1 X65.966 Y89.348 E0.97268
G1 X67.140 Y85.799 E0.11720
G1 X67.968 Y84.699 E0.04316
G1 X68.923 Y83.728 E0.04271
G1 X71.158 Y82.344 E0.08242
G1 X73.708 Y81.716 E0.08236
G1 X87.333 Y81.716 E0.42721
G1 X87.516 Y81.268 E0.01518
G1 X89.220 Y77.765 E0.12212
G1 X91.310 Y74.133 E0.13139
G1 X93.618 Y70.713 E0.12937
G1 X96.100 Y67.538 E0.12633
